X: 6212
T: Carlisle Races
R: jig
M: 6/8
K: Gmajor
D|:G2 B d2 e|dBd g2 d|c2 e dBG|FAA A2 D|
G2 B d2 e|dBd g2 B|c2 e DEF|1 FGG G2 D:|2 FGG G2 d||
|:gab agf|efg dcB|cde dBG|FAA A2 d|
gab agf|efg dcB|c2 e DEF|1 FGG G2 d:|2 FGG G3||

